%
(Header)
(Generated by gcodetools from Inkscape.)
(Using default header. To add your own header create file "header" in the output dir.)
M3
(Header end.)
G21 (All units in mm)

(Start cutting path id: path3336)
(Change tool to Default tool)

G00 Z5.000000
G00 X18.186302 Y18.855375

G01 Z-0.125000 F100.0(Penetrate)
G02 X17.467526 Y18.996689 Z-0.125000 I-0.308656 J0.328698 F400.000000
G02 X17.405730 Y19.686633 Z-0.125000 I0.946654 J0.432528
G02 X18.474974 Y20.660715 Z-0.125000 I1.274749 J-0.325392
G02 X19.848817 Y20.416519 Z-0.125000 I0.333635 J-2.109680
G02 X21.090888 Y18.520026 Z-0.125000 I-1.190199 J-2.134479
G02 X20.528017 Y16.361603 Z-0.125000 I-3.213959 J-0.314471
G02 X17.812207 Y14.829057 Z-0.125000 I-2.947019 J2.049781
G02 X14.861271 Y15.733089 Z-0.125000 I-0.280852 J4.351479
G02 X13.030286 Y19.266449 Z-0.125000 I2.899424 J3.743566
G02 X14.283443 Y23.011665 Z-0.125000 I5.493528 J0.244117
G02 X18.633754 Y25.144736 Z-0.125000 I4.533428 J-3.743063
G02 X23.173848 Y23.538805 Z-0.125000 I0.206794 J-6.635944
G02 X25.610977 Y18.371791 Z-0.125000 I-4.583109 J-5.319985
G02 X23.650304 Y13.036580 Z-0.125000 I-7.778010 J-0.169483
G02 X17.666703 Y10.294204 Z-0.125000 I-6.104700 J5.420860
G02 X11.536240 Y12.610791 Z-0.125000 I-0.132322 J8.919751
G02 X8.487877 Y19.410910 Z-0.125000 I6.257187 J6.888298
G02 X11.161156 Y26.336697 Z-0.125000 I10.061119 J0.095339
G02 X18.777741 Y29.691581 Z-0.125000 I7.671148 J-7.092390
G02 X26.498880 Y26.661092 Z-0.125000 I0.058506 J-11.202216
G02 X30.160661 Y18.228052 Z-0.125000 I-7.926858 J-8.453515
G02 X26.772591 Y9.711550 Z-0.125000 I-12.343068 J-0.021807
G02 X17.523103 Y5.742594 Z-0.125000 I-9.235528 J8.760761
G02 X8.211208 Y9.488510 Z-0.125000 I0.014787 J13.483839
G00 Z5.000000

(End cutting path id: path3336)


(Footer)
M5
G00 X0.0000 Y0.0000
M2
(Using default footer. To add your own footer create file "footer" in the output dir.)
(end)
%